X: 1
T:Mary Had a Little Lamb
O:Kevin Fraser
Z:Kevin Fraser
Q:1/4=78
K:HP
M:4/4
L:1/4
R:March
V:gstem=up stem=down
%%MIDI gracedivider 4
%%MIDI gchord
%%MIDI beatstring
|: {g}f e {g}d e | {g}f {g}f {g}f2     | {g}e {g}e {g}e2     | {g}f g a2 |
w: che e ha e |che che che | he he he | che di I
      f e {g}d e | {g}f {g}f {g}f {g}f | {g}e {g}e {g}f {g}e | {g}d2 {g}d2 :|
w: che e ha e |che che che che| he he che e | ha ha

